X:1
T:Piano Concerto in A minor (opening)
C:Edvard Grieg
O:Op. 16
K:Am
M:4/4
L:1/4
Q:1/4=144
% Pickup: solo piano enters on A4
 A | A E A c | A2 E2 | A3/2 E/ A c | A2 z2 |
% Main theme continuation in A minor
 E3/2 F/ G A | c B A G | A3/2 G/ E A | A4 |]
